X:56
T: SCHOE JUNG IS MAI BLUT
N: E1054
O: Europa, Mitteleuropa, Deutschland, Bayern
R: Tanz - Lied, Schnadahuepfel
M: 3/4
L: 1/8
K: G
D2 | D2G2G2 | A3A
A2 | d2d2c2 | B2d2
d2 | d2c2B2 | B2A2z
G | G2F2E2 | F6 |
Dzd4 | c3AF2 |
dedede | dBG4 |
E2c4 | B2d4 |
A^GAGAB | G2d4 |
A2d4 | B2z2

@@@ Tune index: 4740
